X:1
T:Title
%%score 1 { 2 | 3 }
L:1/8
Q:1/4=78
M:2/4
K:D
V:1 treble nm="Grand Piano, Soprano"
V:2 bass nm="Choir Pad, Are the Signals All Right?"
V:3 bass 
V:1
 D/[DE]/[DF] [DF]2 | [CE][DF] [FA]2 | [DB]/[DA]/[DF] [DF]2 | [CE] D3 | [FA]/[FA]/[GB] [GB]2 | %5
w: By~William~Evander~Penn * * *|||||
 [Gd][FA] [DF]2 | D/D/[CE] [CE]2 | [DF] [CE]3 | [DA]/[FA]/[Fd] [Fd]2 | [Ge][Fd] [FA]2 | %10
w: |||||
 [FA]/[FA]/[GB] [GB]2 | [Gd] [FA]3 | D/[DE]/[DF] [DF]2 | [CE][DF] [FA]2 | [DB]/[DA]/[DF] [DF]2 | %15
w: |||||
 [CE] D3 | D/[DE]/[DF] [DF]2 | [DF] [DF]3 | [DF]/[EG]/[FA] [FA]2 | [FA] [FA]3 | %20
w: |||||
 [FA]/[FA]/[GB] [GB]2 | [Gd][FA] [DF]2 | [Fd]/[Ad]/[Gc] [GB]2 | [Gc] [Fd]3- | [Fd]4 |] %25
w: |||||
V:2
 F,/G,/A, A,2 | A,A,[K:treble] D2 | D/D/A, A,2 | G, F,3 | D/D/D D2 | DD A,2 | F,/F,/A, A,2 | %7
 A, A,3 | F,/A,/A, A,2 | A,A,[K:treble] D2 | D/D/D D2 | D D3 | F,/G,/A, A,2 | A,A,[K:treble] D2 | %14
 D/D/A, A,2 | G, F,3 | F,/G,/A, A,2 | A, A,3 | A,/A,/[K:treble]D D2 | D D3 | D/D/D D2 | %21
 DD[K:bass] A,2 | A,/A,/A, A,2 | A, A,3- | A,4 |] %25
V:3
 D,/D,/D, D,2 | A,,D, D,2 | G,<.F, z2 | A,, D,3 | D,/D,/G,, G,,2 | B,,D, D,2 | D,/D,/A,, A,,2 | %7
 A,, A,,3 | D,/D,/D, D,2 | D,D, D,2 | D,/D,/G,, G,,2 | B,, D,3 | D,/D,/D, D,2 | A,,D, D,2 | %14
 G,<.F, z2 | A,, D,3 | D,/D,/D, D,2 | D, D,3 | D,/D,/D, D,2 | D, D,3 | D,/D,/G,, G,,2 | B,,D, D,2 | %22
 D,<.F, z2 | A,, D,3- | D,4 |] %25

